source/images/icons/icon-utility/social-linkedin.svg

<?xml version="1.0" encoding="UTF-8"?>
<svg width="24px" height="24px" viewBox="0 0 24 24" version="1.1" xmlns="http://www.w3.org/2000/svg" xmlns:xlink="http://www.w3.org/1999/xlink">
    <!-- Generator: Sketch 55.2 (78181) - https://sketchapp.com -->
    <title>Icons/24px/Social-Linkedin</title>
    <desc>Created with Sketch.</desc>
    <g id="Icons/24px/Social-Linkedin" stroke="none" stroke-width="1" fill="none" fill-rule="evenodd">
        <path d="M4,2 L20,2 C21.1045695,2 22,2.8954305 22,4 L22,20 C22,21.1045695 21.1045695,22 20,22 L4,22 C2.8954305,22 2,21.1045695 2,20 L2,4 C2,2.8954305 2.8954305,2 4,2 Z M19.2222222,13.3333333 C19.2222222,11.3328352 17.6004981,9.71111111 15.6,9.71111111 C14.6555556,9.71111111 13.5555556,10.2888889 13.0222222,11.1555556 L13.0222222,9.92222222 L9.92222222,9.92222222 L9.92222222,19.2222222 L13.0222222,19.2222222 L13.0222222,13.7444444 C13.0222222,12.8888889 13.7111111,12.1888889 14.5666667,12.1888889 C15.4257763,12.1888889 16.1222222,12.8853348 16.1222222,13.7444444 L16.1222222,19.2222222 L19.2222222,19.2222222 L19.2222222,13.3333333 Z M8.17777778,6.31111111 C8.17777778,5.27777778 7.34444444,4.43333333 6.31111111,4.43333333 C5.27404308,4.43333333 4.43333333,5.27404308 4.43333333,6.31111111 C4.43333333,7.34444444 5.27777778,8.17777778 6.31111111,8.17777778 C7.34204264,8.17777778 8.17777778,7.34204264 8.17777778,6.31111111 Z M7.85555556,19.2222222 L7.85555556,9.92222222 L4.77777778,9.92222222 L4.77777778,19.2222222 L7.85555556,19.2222222 Z" id="Icon" fill="#ADB5BD"></path>
    </g>
</svg>

<svg width="24" height="24">
    <title>
        Icons/24px/Social-Linkedin
    </title>
    <path d="M4 2h16a2 2 0 0 1 2 2v16a2 2 0 0 1-2 2H4a2 2 0 0 1-2-2V4a2 2 0 0 1 2-2zm15.222 11.333c0-2-1.622-3.622-3.622-3.622-.944 0-2.044.578-2.578 1.445V9.922h-3.1v9.3h3.1v-5.478a1.55 1.55 0 0 1 1.545-1.555c.859 0 1.555.696 1.555 1.555v5.478h3.1v-5.889zM8.178 6.311A1.873 1.873 0 0 0 6.31 4.433c-1.037 0-1.878.841-1.878 1.878a1.873 1.873 0 0 0 3.745 0zm-.322 12.911v-9.3H4.778v9.3h3.078z" fill="#ADB5BD" fill-rule="evenodd"/>
</svg>
